!!!OTL: Tanzlied des 15. Jahrhunderts. / Prima Pars. (Vortanz.)
!!!ARE: Europa, Mitteleuropa, Deutschland
!!!SCT: A0299
!!!TXL: @@DE
!!!YEM: Copyright 1995, estate of Helmut Schaffrath.
**kern	**text
!! Mixed meters:  4/2; 3/2
*M4/2	*
*met(c|)	*
*clefC3	*
*k[b-]	*
*F:ion	*
!LO:TX:a:t=jon. F.	!
{2A	I._Jch
=1	=1
2.c	kam
4c	vor
2c	lie-
2c	-bes
=2	=2
2.d	fen-
4d	-ſter-
2d}	-lein,
{2e	an
=3	=3
2.f	ei-
8eL	-nem
8dJ	.
2c	a-
2e	-bent
=4	=4
*lig	*
2.d	ſpa-
8c\L	.
8B-\J	.
*Xlig	*
2A}	-te,
{2A	Ich
=5	=5
2.c	ſprach
4c	ʒur
2c	al-
2c	-ler-
=6	=6
2.d	-lieb-
4d	-ſten
2d}	mein:
{2e	ich
=7	=7
2.f	fürcht
8eL	ich
8dJ	.
2c	kum
2e	ʒů
=8	=8
*lig	*
2.d	dra-
8c\L	.
8B-\J	.
*Xlig	*
2A}	-te,
=||	=||
{2A	Er-
=9	=9
2d	-ʒeig
2d	mir
2d	doch
2d	die
=10	=10
2c/	trew-
2A	-e
2F}	dein,
{2F	die
=11	=11
2c/	ich
2A	von
2B-	dir
2c/	bin
=12	=12
1d	war-
2c}	-ten.
{2f	Sieh,
=13	=13
2.e	lie-
4d	-be,
2c/	las
2B-	mich
=14	=14
!LO:N:vis=0	!
1.A/}	ein!
=15||	=15||
!LO:TX:a:t=Secunda Pars. (Nachtanz.)	!
*met(3)	*
{2r	.
2r	.
2A	3._Sieh,
=16	=16
*lig	*
2c	lie-
2c	-ber
*Xlig	*
2c	ge-
=17	=17
1c	-ſell,
2c	es
=18	=18
1d	mag
2d	nit
=19	=19
1d}	ſein,
{2e	dar-
=20	=20
1f	-umb
2f	ſo
=21	=21
1c	las
2c	dein
=22	=22
*lig	*
2.d	war-
4c	.
2B-	.
*Xlig	*
=23	=23
1A}	-ten,}
2A	Sen
=24	=24
*lig	*
2c	dich
2c	.
*Xlig	*
2c	nit
=25	=25
1c	nach
2c	der
=26	=26
1d	lie-
2d	-be
=27	=27
1d}	mein
{2e	es
=28	=28
1f	iſt
2f	dar-
=29	=29
1c	-umb
2c	ʒu
=30	=30
*lig	*
2.d	kar-
4c	.
2B-	.
*Xlig	*
=31	=31
1A}	-ten,}
=||	=||
{2A	{Wan
=32	=32
1d	lieb
2d	vnd
=33	=33
1d	leid,
2d	das
=34	=34
1c	hat
2A	kein
=35	=35
1F}	ſin,
{2F	dar-
=36	=36
2c/	-umb
2A	ſo
4B-	thu
4c/	dich
=37	=37
2d	ma-
2c	-ßen,
2f	trawd
=38	=38
2.e	hol-
4d	-der
4c	lie-
4B-	-ber
=39	=39
1A}	man!}
{2A	{Kein
=40	=40
1d	ſol-
2d	-che
=41	=41
1d	frow
2d	ich
=42	=42
1c	doch
2A	nit
=43	=43
1F}	bin,
{2F	dich
=44	=44
2c/	fa-
2A	-ren
4B-	wil
4c/	ich
=45	=45
2d	laſ-
2c	-ſen,
2f	ich
=46	=46
2.e	thu
4d	ſein
4c	war-
4B-	-lich
=47	=47
1A}	nit!}
==	==
!!!GTL: Tanz- und Kranzlieder
!!!AGN: Romanze, Ballade, Lied
!! Pet. Schoeffer 1513 No. 11.
!!!ONB: ESAC (Essen Associative Code) Database: ALTDEU
!!!AMT: irregular
!!!AIN: vox
!!!EED: Helmut Schaffrath
!!!EEV: 1.0
!!!RDF**kern: l = terminal long
!!!AMD: Ionian
!!!URL-scan: https://rosdok.uni-rostock.de/mcrviewer/recordIdentifier/rosdok_ppn738218359/iview2/phys_0456.iview2?x=-495.6391625615763&y=-1186.3261083569378&scale=0.4629418472063854&rotation=0&layout=singlePageLayout&logicalDiv=log_0012
!!!ENC: Anna Maria Matuszewska
!!!EEV: 2024/12/03
*-	*-
